X:330
T: Upstairs with You
T: Suas an Staighre Leat
S: B.Breathnach: "Ceol Rince na hEireann" II/73
Z: B.Black
L: 1/8
M: 12/8
R: slide
Q: 375
K: D
G2A B2G A2F G2A|B2G EFE B2E E2F|
G2A B2G A2F G2B|A2F DED A2D D3 :|
d2c B2A BcB d2A|B2G EFE B2E E2B|
d2c B2A BcB d2B|A2F DED A2D D3 :|

